X: 24348
T: Louis Quinn's
R: hornpipe
M: 4/4
K: Dmajor
FE|:DA,DE FDFA|BGBd cABc|dcde fdgf|edcB (3ABA (3GFE|DA,DE FDFA|
BGBd cABc|1 dfeg fbaf|gABc d2FE:|2 dcdf gfef|gABc defg||
|:afdA FDA,D|FAdf afd2|(3gag (3fgf edcd|(3efe (3dcB (3ABA (3GFE|
DA,DE FDFA|BGBd cABc|dfeg fagb|1 aABc d2fg:|2 aABc d2||

